Hatter/scalable/apps/dev.mohfy.quizbite.svg

<?xml version="1.0" encoding="UTF-8" standalone="no"?>
<svg
   width="512"
   height="512"
   version="1.1"
   id="svg2"
   sodipodi:docname="dev.mohfy.quizbite.svg"
   inkscape:version="1.4.4 (dcaf3e7d9e, 2026-05-05)"
   viewBox="0 0 64 64"
   xml:space="preserve"
   xmlns:inkscape="http://www.inkscape.org/namespaces/inkscape"
   xmlns:sodipodi="http://sodipodi.sourceforge.net/DTD/sodipodi-0.dtd"
   xmlns="http://www.w3.org/2000/svg"
   xmlns:svg="http://www.w3.org/2000/svg"><sodipodi:namedview
     id="namedview2"
     pagecolor="#ffffff"
     bordercolor="#111111"
     borderopacity="1"
     inkscape:showpageshadow="0"
     inkscape:pageopacity="0"
     inkscape:pagecheckerboard="1"
     inkscape:deskcolor="#d1d1d1"
     inkscape:zoom="1.1054688"
     inkscape:cx="325.20141"
     inkscape:cy="191.77385"
     inkscape:window-width="1841"
     inkscape:window-height="1371"
     inkscape:window-x="20"
     inkscape:window-y="20"
     inkscape:window-maximized="0"
     inkscape:current-layer="svg2" /><defs
     id="defs2"><linearGradient
       id="linearGradient862-3"
       x1="7.9373"
       x2="7.9373"
       y1="15.081"
       y2="1.852"
       gradientTransform="matrix(3.7794651,0,0,3.7794651,1.4277357e-4,0.03154162)"
       gradientUnits="userSpaceOnUse"><stop
         stop-color="#f1efeb"
         offset="0"
         id="stop1" /><stop
         stop-color="#fdfcfc"
         offset="1"
         id="stop2" /></linearGradient><linearGradient
       id="linearGradient1"
       x1="11"
       y1="70"
       x2="104"
       y2="70"
       gradientUnits="userSpaceOnUse"
       gradientTransform="matrix(0.125,0,0,0.125,80.816761,0.06143062)"><stop
         offset="0"
         stop-color="#ababab"
         stop-opacity="1"
         id="stop1-3" /><stop
         offset="0.033838"
         stop-color="#ffffff"
         stop-opacity="1"
         id="stop2-6" /><stop
         offset="0.051369"
         stop-color="#ababab"
         stop-opacity="1"
         id="stop3" /><stop
         offset="0.949126"
         stop-color="#ababab"
         stop-opacity="1"
         id="stop4" /><stop
         offset="0.970689"
         stop-color="#ffffff"
         stop-opacity="1"
         id="stop5" /><stop
         offset="1"
         stop-color="#ababab"
         stop-opacity="1"
         id="stop6" /></linearGradient><filter
       inkscape:collect="always"
       style="color-interpolation-filters:sRGB"
       id="filter4"
       x="-0.074999999"
       y="-0.075"
       width="1.15"
       height="1.15"><feGaussianBlur
         inkscape:collect="always"
         stdDeviation="1.75"
         id="feGaussianBlur4" /></filter><clipPath
       clipPathUnits="userSpaceOnUse"
       id="clipPath4"><path
         id="path4"
         style="display:inline;fill:#63a94d;fill-opacity:1;stroke-width:1"
         d="M 17.001465,4 C 9.7986143,4 4,9.7986143 4,17.001465 V 37.416992 A 16,16 0 0 1 16,32 16,16 0 0 1 32,48 16,16 0 0 1 26.583007,60 H 46.998535 C 54.201386,60 60,54.201386 60,46.998535 V 17.001465 C 60,9.7986143 54.201386,4 46.998535,4 Z" /></clipPath></defs><path
     id="rect2-5-2"
     style="opacity:0.2;mix-blend-mode:normal;fill:#000000;fill-opacity:1;filter:url(#filter4)"
     d="m 17.001465,4.000001 c -7.2028511,0 -13.0014651,5.7986142 -13.0014651,13.001465 V 37.416993 A 16,16 0 0 1 16,32.000001 a 16,16 0 0 1 16,16 16,16 0 0 1 -5.416992,12 h 20.415523 c 7.20285,0 13.00147,-5.798614 13.00147,-13.001465 v -29.99707 c 0,-7.2028508 -5.79862,-13.001465 -13.00147,-13.001465 z" /><g
     id="g4"
     style="display:inline"
     clip-path="url(#clipPath4)"><rect
       x="4"
       y="4"
       width="56"
       height="56"
       rx="13.001535"
       ry="13.001535"
       fill="url(#linearGradient862-3)"
       stroke-width="3.7796"
       id="rect2"
       style="fill:url(#linearGradient862-3)" /><path
       id="Line"
       fill="none"
       stroke="#b8b8b8"
       stroke-width="2.35169"
       stroke-linecap="round"
       stroke-linejoin="round"
       d="M 12.423424,11.915901 H 35.31331" /><path
       id="Line-copy-5"
       fill="none"
       stroke="#b8b8b8"
       stroke-width="2.35169"
       stroke-linecap="round"
       stroke-linejoin="round"
       d="M 12.423424,17.654214 H 35.31331" /><path
       id="Line-copy-6"
       fill="none"
       stroke="#b8b8b8"
       stroke-width="2.35169"
       stroke-linecap="round"
       stroke-linejoin="round"
       d="M 12.423424,23.392528 H 35.31331" /><path
       id="Line-copy-7"
       fill="none"
       stroke="#b8b8b8"
       stroke-width="2.35169"
       stroke-linecap="round"
       stroke-linejoin="round"
       d="M 12.423424,29.130842 51.577176,28.557011" /><path
       id="Line-copy-8"
       fill="none"
       stroke="#b8b8b8"
       stroke-width="2.35169"
       stroke-linecap="round"
       stroke-linejoin="round"
       d="M 12.423424,34.869155 H 51.577176" /><path
       id="Line-copy-9"
       fill="none"
       stroke="#b8b8b8"
       stroke-width="2.35169"
       stroke-linecap="round"
       stroke-linejoin="round"
       d="M 12.423424,40.607471 H 51.577176" /><path
       id="Line-copy-10"
       fill="none"
       stroke="#b8b8b8"
       stroke-width="2.35169"
       stroke-linecap="round"
       stroke-linejoin="round"
       d="M 12.423424,46.345785 H 51.577176" /><path
       id="Line-copy-11"
       fill="none"
       stroke="#b8b8b8"
       stroke-width="2.35169"
       stroke-linecap="round"
       stroke-linejoin="round"
       d="M 12.423424,52.084099 H 51.577176" /><path
       id="A"
       fill="#ff0000"
       stroke="none"
       d="m 41.143572,20.640966 h 2.010214 l 0.338068,-1.293568 h 1.947111 l 0.338018,1.293568 h 2.010216 l -2.122894,-6.503907 h -2.397839 z m 3.303782,-4.953423 h 0.03594 l 0.603967,2.312197 h -1.243993 z"
       style="stroke-width:0.615384" /><path
       id="Oval"
       fill="none"
       stroke="#ff0000"
       stroke-width="1.23077"
       stroke-linecap="round"
       stroke-linejoin="round"
       d="m 52.085277,17.564043 c 0,-4.07841 -3.306206,-7.384616 -7.384615,-7.384616 -4.07841,0 -7.384616,3.306206 -7.384616,7.384616 0,4.078409 3.306206,7.384615 7.384616,7.384615 4.078409,0 7.384615,-3.306206 7.384615,-7.384615 z" /></g></svg>

<?xml version="1.0" encoding="UTF-8"?>
<svg id="svg2" width="512" height="512" version="1.1" viewBox="0 0 64 64" xml:space="preserve" xmlns="http://www.w3.org/2000/svg"><defs id="defs2"><linearGradient id="linearGradient862-3" x1="7.9373" x2="7.9373" y1="15.081" y2="1.852" gradientTransform="matrix(3.7795 0 0 3.7795 .00014277 .031542)" gradientUnits="userSpaceOnUse"><stop id="stop1" stop-color="#f1efeb" offset="0"/><stop id="stop2" stop-color="#fdfcfc" offset="1"/></linearGradient><filter id="filter4" x="-.075" y="-.075" width="1.15" height="1.15" color-interpolation-filters="sRGB"><feGaussianBlur id="feGaussianBlur4" stdDeviation="1.75"/></filter><clipPath id="clipPath4"><path id="path4" d="m17.001 4c-7.2029 0-13.001 5.7986-13.001 13.001v20.416a16 16 0 0 1 12-5.417 16 16 0 0 1 16 16 16 16 0 0 1-5.417 12h20.416c7.2029 0 13.001-5.7986 13.001-13.001v-29.997c0-7.2029-5.7986-13.001-13.001-13.001z" fill="#63a94d"/></clipPath></defs><path id="rect2-5-2" d="m17.001 4c-7.2029 0-13.001 5.7986-13.001 13.001v20.416a16 16 0 0 1 12-5.417 16 16 0 0 1 16 16 16 16 0 0 1-5.417 12h20.416c7.2028 0 13.001-5.7986 13.001-13.001v-29.997c0-7.2029-5.7986-13.001-13.001-13.001z" filter="url(#filter4)" opacity=".2" style="mix-blend-mode:normal"/><g id="g4" clip-path="url(#clipPath4)"><rect id="rect2" x="4" y="4" width="56" height="56" rx="13.002" ry="13.002" fill="url(#linearGradient862-3)" stroke-width="3.7796"/><path id="Line" d="m12.423 11.916h22.89" fill="none" stroke="#b8b8b8" stroke-linecap="round" stroke-linejoin="round" stroke-width="2.3517"/><path id="Line-copy-5" d="m12.423 17.654h22.89" fill="none" stroke="#b8b8b8" stroke-linecap="round" stroke-linejoin="round" stroke-width="2.3517"/><path id="Line-copy-6" d="m12.423 23.393h22.89" fill="none" stroke="#b8b8b8" stroke-linecap="round" stroke-linejoin="round" stroke-width="2.3517"/><path id="Line-copy-7" d="m12.423 29.131 39.154-0.57383" fill="none" stroke="#b8b8b8" stroke-linecap="round" stroke-linejoin="round" stroke-width="2.3517"/><path id="Line-copy-8" d="m12.423 34.869h39.154" fill="none" stroke="#b8b8b8" stroke-linecap="round" stroke-linejoin="round" stroke-width="2.3517"/><path id="Line-copy-9" d="m12.423 40.607h39.154" fill="none" stroke="#b8b8b8" stroke-linecap="round" stroke-linejoin="round" stroke-width="2.3517"/><path id="Line-copy-10" d="m12.423 46.346h39.154" fill="none" stroke="#b8b8b8" stroke-linecap="round" stroke-linejoin="round" stroke-width="2.3517"/><path id="Line-copy-11" d="m12.423 52.084h39.154" fill="none" stroke="#b8b8b8" stroke-linecap="round" stroke-linejoin="round" stroke-width="2.3517"/><path id="A" d="m41.144 20.641h2.0102l0.33807-1.2936h1.9471l0.33802 1.2936h2.0102l-2.1229-6.5039h-2.3978zm3.3038-4.9534h0.03594l0.60397 2.3122h-1.244z" fill="#f00" stroke-width=".61538"/><path id="Oval" d="m52.085 17.564c0-4.0784-3.3062-7.3846-7.3846-7.3846-4.0784 0-7.3846 3.3062-7.3846 7.3846 0 4.0784 3.3062 7.3846 7.3846 7.3846 4.0784 0 7.3846-3.3062 7.3846-7.3846z" fill="none" stroke="#f00" stroke-linecap="round" stroke-linejoin="round" stroke-width="1.2308"/></g></svg>
